svg/design/magic_hat_line.svg

<?xml version="1.0" encoding="UTF-8"?>
<svg width="24px" height="24px" viewBox="0 0 24 24" version="1.1" xmlns="http://www.w3.org/2000/svg" xmlns:xlink="http://www.w3.org/1999/xlink">
    <title>magic_hat_line</title>
    <g id="Icon" stroke="none" stroke-width="1" fill="none" fill-rule="evenodd">
        <g id="Design" transform="translate(-912.000000, -384.000000)" fill-rule="nonzero">
            <g id="magic_hat_line" transform="translate(912.000000, 384.000000)">
                <path d="M24,0 L24,24 L0,24 L0,0 L24,0 Z M12.5935,23.2578 L12.5819,23.2595 L12.5109,23.295 L12.4919,23.2987 L12.4767,23.295 L12.4057,23.2595 C12.3958,23.2564 12.387,23.259 12.3821,23.2649 L12.378,23.2758 L12.3609,23.7031 L12.3659,23.7235 L12.3769,23.7357 L12.4805,23.8097 L12.4953,23.8136 L12.5071,23.8097 L12.6107,23.7357 L12.6233,23.7197 L12.6267,23.7031 L12.6096,23.2758 C12.6076,23.2657 12.601,23.2593 12.5935,23.2578 Z M12.8584,23.1453 L12.8445,23.1473 L12.6598,23.2397 L12.6499,23.2499 L12.6472,23.2611 L12.6651,23.6906 L12.6699,23.7034 L12.6784,23.7105 L12.8793,23.8032 C12.8914,23.8069 12.9022,23.803 12.9078,23.7952 L12.9118,23.7812 L12.8777,23.1665 C12.8753,23.1546 12.8674,23.147 12.8584,23.1453 Z M12.143,23.1473 C12.1332,23.1424 12.1222,23.1453 12.1156,23.1526 L12.1099,23.1665 L12.0758,23.7812 C12.0751,23.7927 12.0828,23.8019 12.0926,23.8046 L12.1083,23.8032 L12.3092,23.7105 L12.3186,23.7024 L12.3225,23.6906 L12.3404,23.2611 L12.3372,23.2485 L12.3278,23.2397 L12.143,23.1473 Z" id="MingCute"></path>
                <path d="M15.5414,4.15937 C15.8406889,4.35208111 16.0121358,4.68696704 15.9994137,5.03627359 L15.9859,5.16769 L15.2677,9.39283 C15.22162,9.663766 15.232052,9.9405452 15.2974088,10.2060002 L15.3567,10.4027 L17.1662,15.4522 C18.0471,15.6271 18.8261,15.8528 19.4337,16.1298 C19.8002,16.2968 20.1576,16.5062 20.4378,16.7761 C20.7194,17.0474 21,17.4593 21,18.0001 C21,18.8481 20.3367,19.3696 19.8801,19.6395 C19.3566,19.9489 18.6656,20.1929 17.8994,20.3845 C16.3516,20.7714 14.2663,21.0001 12,21.0001 C9.73373,21.0001 7.64843,20.7714 6.10061,20.3845 C5.33439,20.1929 4.64339,19.9489 4.11985,19.6395 C3.66326,19.3696 3,18.8481 3,18.0001 C3,17.4593 3.28058,17.0474 3.5622,16.7761 C3.84242,16.5062 4.19977,16.2968 4.56627,16.1298 C5.09792875,15.887425 5.76082328,15.6843266 6.50838063,15.5201697 L6.83381,15.4522 L9.29442,8.58582 C9.552333,7.866108 10.0104294,7.237116 10.612321,6.77146698 L10.8182,6.6224 L14.4396,4.17191 C14.7712,3.9475 15.2048,3.94256 15.5414,4.15937 Z M15.4229,16.5161 C14.4403,16.8301 13.2473,17.0001 12,17.0001 C10.7527,17.0001 9.55967,16.8301 8.57711,16.5161 L8.52192,16.6701 C8.39958,17.0115 8.10203,17.2599 7.74429,17.3192 C6.7065,17.4915 5.90801,17.7162 5.39578,17.9496 C5.29673824,17.9947706 5.45042796,18.0789547 5.6781017,18.1655135 L5.88720011,18.2394337 L5.88720011,18.2394337 L6.21407363,18.341279 L6.21407363,18.341279 L6.58568,18.4442 L6.58568,18.4442 C7.93329,18.7811 9.848,19.0001 12,19.0001 C14.0085333,19.0001 15.810352,18.8093267 17.1373164,18.509978 L17.4567173,18.4332888 L17.4567173,18.4332888 L17.7859185,18.341279 L17.7859185,18.341279 L18.0024668,18.2752277 L18.0024668,18.2752277 L18.2202975,18.2026486 C18.5004768,18.1038035 18.7173765,18.0012235 18.6042,17.9496 C18.092,17.7162 17.2935,17.4915 16.2557,17.3192 C15.898,17.2599 15.6004,17.0115 15.4781,16.6701 L15.4229,16.5161 Z M13.6219,7.14006 L11.9391,8.27881 C11.6375571,8.48283571 11.3984633,8.76459939 11.2460633,9.09273379 L11.1772,9.26052 L9.25234,14.6318 C9.97151,14.8525 10.9212,15.0001 12,15.0001 C12.9589333,15.0001 13.8158617,14.8834778 14.4995687,14.7025571 L14.7477,14.6318 L13.4739,11.0774 C13.271075,10.51145 13.1987891,9.90815281 13.2610617,9.3124133 L13.296,9.05769 L13.6219,7.14006 Z M19.2218,6.43142 C19.6529083,7.328195 20.3113118,8.09297076 21.1285348,8.64992343 L21.3553,8.79661 C21.6175727,8.95744636 21.662986,9.00278686 21.4327117,9.15467506 L21.3553,9.20366 C20.5097667,9.7222 19.8168278,10.4554142 19.344959,11.3275557 L19.1160874,11.7769995 C19.0054612,11.9682964 18.9479357,11.9217429 18.7783,11.5688 C18.3471917,10.672025 17.6887042,9.90729125 16.8714672,9.35034559 L16.6447,9.20366 C16.3586091,9.02819636 16.3542537,8.98162529 16.5725805,8.84163273 L16.6447,8.79661 C17.5671,8.23093 18.308,7.40972 18.7783,6.43142 C18.9479357,6.07849286 19.0054612,6.031955 19.1160874,6.22323859 L19.1826881,6.35074856 C19.1949969,6.37579378 19.2079929,6.40270143 19.2218,6.43142 Z M7.5973624,3.66528016 L7.66656,3.78765 C7.98056889,4.36738333 8.45516247,4.86436704 9.04334069,5.23251409 L9.26914,5.36444 C9.46135333,5.46907111 9.50002198,5.49968346 9.33898165,5.59623775 L9.26914,5.63581 C8.65330889,5.97102778 8.1451716,6.44084309 7.79174927,6.9991689 L7.59059962,7.34290999 C7.51397666,7.45850455 7.47311706,7.44864181 7.40262922,7.33496092 L7.33343,7.2126 L7.33343,7.2126 C7.01942111,6.63287556 6.54482753,6.13588494 5.95664931,5.76773624 L5.61624531,5.56904904 C5.54592247,5.52132195 5.54005642,5.48881262 5.60992802,5.43739726 L5.73085,5.36444 C6.34669,5.02922222 6.85482037,4.55940691 7.20824106,4.0010811 L7.33343,3.78765 C7.4651,3.54456818 7.5067395,3.5191086 7.5973624,3.66528016 Z" id="形状" fill="#09244B"></path>
            </g>
        </g>
    </g>
</svg>

<svg xmlns="http://www.w3.org/2000/svg" width="24" height="24"><g fill="none" fill-rule="nonzero"><path d="M24 0v24H0V0h24ZM12.594 23.258l-.012.002-.071.035-.02.004-.014-.004-.071-.036c-.01-.003-.019 0-.024.006l-.004.01-.017.428.005.02.01.013.104.074.015.004.012-.004.104-.074.012-.016.004-.017-.017-.427c-.002-.01-.009-.017-.016-.018Zm.264-.113-.014.002-.184.093-.01.01-.003.011.018.43.005.012.008.008.201.092c.012.004.023 0 .029-.008l.004-.014-.034-.614c-.003-.012-.01-.02-.02-.022Zm-.715.002a.023.023 0 0 0-.027.006l-.006.014-.034.614c0 .012.007.02.017.024l.015-.002.201-.093.01-.008.003-.011.018-.43-.003-.012-.01-.01-.184-.092Z"/><path fill="#09244B" d="M15.541 4.16a1 1 0 0 1 .458.876l-.013.132-.718 4.225a2 2 0 0 0 .03.813l.059.197 1.81 5.05c.88.174 1.66.4 2.267.677.366.167.724.376 1.004.646.281.271.562.683.562 1.224 0 .848-.663 1.37-1.12 1.64-.523.309-1.214.553-1.98.744-1.548.387-3.634.616-5.9.616-2.266 0-4.352-.229-5.9-.616-.766-.191-1.457-.435-1.98-.744C3.663 19.37 3 18.848 3 18c0-.54.28-.953.562-1.224.28-.27.638-.48 1.004-.646.532-.243 1.195-.446 1.942-.61l.326-.068 2.46-6.866a4 4 0 0 1 1.318-1.815l.206-.149 3.622-2.45a1 1 0 0 1 1.101-.013Zm-.118 12.356C14.44 16.83 13.247 17 12 17c-1.247 0-2.44-.17-3.423-.484l-.055.154a1 1 0 0 1-.778.65c-1.037.171-1.836.396-2.348.63-.1.045.054.129.282.216l.21.073.326.102.372.103C7.933 18.781 9.848 19 12 19c2.009 0 3.81-.19 5.137-.49l.32-.077.329-.092.216-.066.218-.072c.28-.1.497-.202.384-.253-.512-.234-1.31-.459-2.348-.63a1 1 0 0 1-.778-.65l-.055-.154ZM13.622 7.14 11.939 8.28a2 2 0 0 0-.693.814l-.069.168-1.925 5.37c.72.221 1.67.37 2.748.37.959 0 1.816-.118 2.5-.298l.248-.071-1.274-3.555a4 4 0 0 1-.213-1.765l.035-.254.326-1.918Zm5.6-.709a5.642 5.642 0 0 0 1.907 2.219l.226.147c.263.16.308.206.078.358l-.078.049a5.638 5.638 0 0 0-2.01 2.124l-.229.449c-.11.191-.168.145-.338-.208a5.642 5.642 0 0 0-1.907-2.219l-.226-.146c-.286-.176-.29-.222-.072-.362l.072-.045a5.64 5.64 0 0 0 2.133-2.366c.17-.353.227-.399.338-.208l.067.128.039.08ZM7.597 3.665l.07.123c.314.58.788 1.076 1.376 1.445l.226.131c.192.105.231.136.07.232l-.07.04a4.003 4.003 0 0 0-1.477 1.363l-.201.344c-.077.116-.118.106-.188-.008l-.07-.122a3.919 3.919 0 0 0-1.376-1.445l-.34-.199c-.071-.048-.077-.08-.007-.132l.12-.073a4.003 4.003 0 0 0 1.478-1.363l.125-.213c.132-.243.174-.269.264-.123Z"/></g></svg>
